images/Workflow_1.svg

<svg height="30" viewBox="0 0 34 30" width="34" xmlns="http://www.w3.org/2000/svg" xmlns:xlink="http://www.w3.org/1999/xlink"><linearGradient id="a" x1="64.345002%" x2="0%" y1="15.39894%" y2="90.710323%"><stop offset="0" stop-color="#fff"/><stop offset="1" stop-color="#fff" stop-opacity="0"/></linearGradient><path d="m59.942 32.334v3.333h-10v-6.667h10zm-13.333.833v.834h-1.395c-3.958.02-6.291 3.333-4.375 6.23.521.791 1.792 1.686 2.813 1.999.417.125.458.062.458-.709v-.854l2.396 1.188c1.312.667 2.396 1.25 2.396 1.312 0 .061-1.084.646-2.396 1.312l-2.396 1.188v-.813c0-.75-.062-.834-.667-.959-3.5-.77-5.791-4.5-4.645-7.541.959-2.48 3.354-3.979 6.416-4l1.395-.02zm13.333 10.833v3.333h-10v-6.667h10zm7.895 1.187c2.855.917 4.542 4.083 3.688 6.98-.583 2.04-2.687 3.832-4.958 4.249-.75.125-.792.166-.792.938v.812l-2.396-1.188c-1.312-.666-2.395-1.25-2.395-1.312 0-.061 1.083-.646 2.395-1.312l2.396-1.187v.854c0 .854 0 .854.688.709 1.708-.376 3.062-1.542 3.48-2.98.312-1.146.25-1.708-.293-2.875-.812-1.729-2.083-2.375-4.728-2.375h-1.647v-1.667h1.75c1.042 0 2.166.146 2.812.354zm-7.895 10.48v3.333h-10v-6.667h10v3.333z" fill="url(#a)" transform="translate(-38 -29)"/></svg>

<?xml version="1.0" encoding="UTF-8"?>
<svg width="34px" height="30px" viewBox="0 0 34 30" version="1.1" xmlns="http://www.w3.org/2000/svg" xmlns:xlink="http://www.w3.org/1999/xlink">
    <title>Workflow</title>
    <defs>
        <linearGradient x1="64.3450017%" y1="15.3989402%" x2="0%" y2="90.710323%" id="linearGradient-1">
            <stop stop-color="#FFFFFF" offset="0%"></stop>
            <stop stop-color="#FFFFFF" stop-opacity="0" offset="100%"></stop>
        </linearGradient>
    </defs>
    <g id="Page-1" stroke="none" stroke-width="1" fill="none" fill-rule="evenodd">
        <g id="Artboard" transform="translate(-38.000000, -29.000000)" fill="url(#linearGradient-1)" fill-rule="nonzero">
            <path d="M59.942,32.334 L59.942,35.667 L49.942,35.667 L49.942,29 L59.942,29 L59.942,32.334 Z M46.609,33.167 L46.609,34.001 L45.214,34.001 C41.256,34.021 38.923,37.334 40.839,40.231 C41.36,41.022 42.631,41.917 43.652,42.23 C44.069,42.355 44.11,42.292 44.11,41.521 L44.11,40.667 L46.506,41.855 C47.818,42.522 48.902,43.105 48.902,43.167 C48.902,43.228 47.818,43.813 46.506,44.479 L44.11,45.667 L44.11,44.854 C44.11,44.104 44.048,44.02 43.443,43.895 C39.943,43.125 37.652,39.395 38.798,36.354 C39.757,33.874 42.152,32.375 45.214,32.354 L46.609,32.334 L46.609,33.167 Z M59.942,44 L59.942,47.333 L49.942,47.333 L49.942,40.666 L59.942,40.666 L59.942,44 Z M67.837,45.187 C70.692,46.104 72.379,49.27 71.525,52.167 C70.942,54.207 68.838,55.999 66.567,56.416 C65.817,56.541 65.775,56.582 65.775,57.354 L65.775,58.166 L63.379,56.978 C62.067,56.312 60.984,55.728 60.984,55.666 C60.984,55.605 62.067,55.02 63.379,54.354 L65.775,53.167 L65.775,54.021 C65.775,54.875 65.775,54.875 66.463,54.73 C68.171,54.354 69.525,53.188 69.943,51.75 C70.255,50.604 70.193,50.042 69.65,48.875 C68.838,47.146 67.567,46.5 64.922,46.5 L63.275,46.5 L63.275,44.833 L65.025,44.833 C66.067,44.833 67.191,44.979 67.837,45.187 Z M59.942,55.667 L59.942,59 L49.942,59 L49.942,52.333 L59.942,52.333 L59.942,55.666 L59.942,55.667 Z" id="Workflow"></path>
        </g>
    </g>
</svg>
